localPackages/DesignSystem/Sources/DesignSystem/Resources/Assets.xcassets/IconSet/ic-calendar-row.imageset/ic-calendar-row.svg

<svg width="24" height="24" viewBox="0 0 24 24" fill="none" xmlns="http://www.w3.org/2000/svg">
<g id="ic-calendar-row">
<path id="Icon" fill-rule="evenodd" clip-rule="evenodd" d="M4.5 2.25V3.25606C2.75221 3.87381 1.5 5.54067 1.5 7.5V18C1.5 20.4853 3.51472 22.5 6 22.5H18C20.4853 22.5 22.5 20.4853 22.5 18V7.5C22.5 5.54067 21.2478 3.87381 19.5 3.25606V2.25C19.5 1.83579 19.1642 1.5 18.75 1.5C18.3358 1.5 18 1.83579 18 2.25V3H6V2.25C6 1.83579 5.66421 1.5 5.25 1.5C4.83579 1.5 4.5 1.83579 4.5 2.25ZM18 4.5H6C4.34315 4.5 3 5.84315 3 7.5L21 7.5C21 5.84315 19.6569 4.5 18 4.5ZM21 9H3V18C3 19.6569 4.34315 21 6 21H18C19.6569 21 21 19.6569 21 18V9ZM17.25 12H6.75C6.33579 12 6 12.3358 6 12.75C6 13.1642 6.33579 13.5 6.75 13.5H17.25C17.6642 13.5 18 13.1642 18 12.75C18 12.3358 17.6642 12 17.25 12ZM6.75 10.5C5.50736 10.5 4.5 11.5074 4.5 12.75C4.5 13.9926 5.50736 15 6.75 15H17.25C18.4926 15 19.5 13.9926 19.5 12.75C19.5 11.5074 18.4926 10.5 17.25 10.5H6.75Z" fill="#0F0F0F"/>
</g>
</svg>

<svg xmlns="http://www.w3.org/2000/svg" width="24" height="24" viewBox="0 0 24 24">
  <g class="ic-calendar-row">
    <path fill-rule="evenodd" d="M4.5 2.25v1.006a4.502 4.502 0 0 0-3 4.244V18A4.5 4.5 0 0 0 6 22.5h12a4.5 4.5 0 0 0 4.5-4.5V7.5a4.502 4.502 0 0 0-3-4.244V2.25a.75.75 0 0 0-1.5 0V3H6v-.75a.75.75 0 0 0-1.5 0ZM18 4.5H6a3 3 0 0 0-3 3h18a3 3 0 0 0-3-3ZM21 9H3v9a3 3 0 0 0 3 3h12a3 3 0 0 0 3-3V9Zm-3.75 3H6.75a.75.75 0 0 0 0 1.5h10.5a.75.75 0 0 0 0-1.5Zm-10.5-1.5a2.25 2.25 0 0 0 0 4.5h10.5a2.25 2.25 0 0 0 0-4.5H6.75Z" class="Icon"/>
  </g>
</svg>
